X: 75
T: In convertendo
N: Derived from Mar2051-In_convertendo.krn
C: Johannes Martini
%%abc-version 2.0
%%abcx-abcm2ps-target-version 5.9.1 (29 Sep 2008)
%%abc-creator hum2abc beta
%%abcx-conversion-date 2019/02/17 07:19:42
%%abc-edited-by Jesse Rodin
%%abc-edited-by Chris Gage 02-10-2014
%%abcx-initial-encoding-date 2014/10/05/
%%humdrum-veritas 1234466641
%%humdrum-veritas-data 3181559211
%%linebreak <none>
%%barnumbers 0
L: 1/4
M: 4/2
Q: 1/2=120
%%staves {1 2}
V: 1 clef=treble
V: 2 clef=treble-8
K: C
[V:1] A4A2A2 | 
[V:2] A4c2c2 | 
[V:1] A4A2A2 | 
[V:2] c4c2c2 | 
[V:1] G2F2G4 | 
[V:2] B2A2B4 | 
[V:1] A8 ||  
[V:2] A8 ||  
[V:1] F4G2G2 | 
[V:2] A4B2B2 | 
[V:1] A2A2A2A2 | 
[V:2] A2A2c2c2 | 
[V:1] A4A2B2- | 
[V:2] c4c2d2- | 
[V:1] BA^G^FG4 | 
[V:2] dcBAB4 | 
[V:1] A4z4 | 
[V:2] A4z4 | 
[V:1] A4A2A2 | 
[V:2] c4c2c2 | 
[V:1] A4A4 | 
[V:2] c4c4 | 
[V:1] A2G2F2_B2- | 
[V:2] c2B2A2d2- | 
[V:1] BAA4G2 | 
[V:2] dcA2_B4 | 
[V:1] A8 ||  
[V:2] A8 ||  
[V:1] A2A2A2A2 | 
[V:2] A2A2c2c2 | 
[V:1] A2A2A4 | 
[V:2] c2c2c4 | 
[V:1] z4A4 | 
[V:2] z4c4 | 
[V:1] A2A2A2A2 | 
[V:2] c2c2c2c2 | 
[V:1] A2A2A4 | 
[V:2] c2c2c4 | 
[V:1] A2A2G2F2 | 
[V:2] c2c2B2A2 | 
[V:1] G4A4 ||  
[V:2] B4A4 ||  
[V:1] A4A2A2 | 
[V:2] A4c2c2 | 
[V:1] A2A2A2A2 | 
[V:2] c2c2c2c2 | 
[V:1] A4A2A2 | 
[V:2] c4c2c2 | 
[V:1] A2A2A4 | 
[V:2] c2c2c4 | 
[V:1] A4z4 | 
[V:2] A4z4 | 
[V:1] A2A2G4 | 
[V:2] c2c2B4 | 
[V:1] F2_B4A2- | 
[V:2] A3GA2c2 | 
[V:1] A2G2A4 ||  
[V:2] _B4A4 ||  
[V:1] A4A2A2 | 
[V:2] A4c2c2 | 
[V:1] A2A2A4 | 
[V:2] c2c2c4 | 
[V:1] A4A2A2 | 
[V:2] c4c2c2 | 
[V:1] A2A2A4 | 
[V:2] c2c2c4 | 
[V:1] A4z4 | 
[V:2] A4z4 | 
[V:1] A2A2A4 | 
[V:2] c2c2c4 | 
[V:1] G2F2G4 | 
[V:2] B2A2B4 | 
[V:1] A8 ||  
[V:2] A8 ||  
[V:1] A4A2A2 | 
[V:2] A4c2c2 | 
[V:1] A2A2A2A2 | 
[V:2] c2c2c2c2 | 
[V:1] A4z4 | 
[V:2] A4z4 | 
[V:1] A4A2A2 | 
[V:2] c4c2c2 | 
[V:1] G4F2G2 | 
[V:2] B4A2B2 | 
[V:1] A2B4A2- | 
[V:2] c2d4c2- | 
[V:1] A2^G^FG4 | 
[V:2] c2BAB4 | 
[V:1] A8 ||  
[V:2] A8 ||  
[V:1] A4A2A2 | 
[V:2] A4c2c2 | 
[V:1] A2A2A2A2 | 
[V:2] c2c2c2c2 | 
[V:1] A4z4 | 
[V:2] A4z4 | 
[V:1] A2A2A4 | 
[V:2] c2c2c4 | 
[V:1] A4G2F2 | 
[V:2] c4B2A2 | 
[V:1] G4A4 ||  
[V:2] B4A4 ||  
[V:1] F4G4 | 
[V:2] A4B4 | 
[V:1] A4A4 | 
[V:2] c4A4 | 
[V:1] A2A2A2A2 | 
[V:2] c2c2c2c2 | 
[V:1] A4A2A2 | 
[V:2] c4c2c2 | 
[V:1] A2A2A2A2 | 
[V:2] c2c2c2c2 | 
[V:1] A4z4 | 
[V:2] A4z4 | 
[V:1] A2A2A4 | 
[V:2] c2c2c4 | 
[V:1] A2A2G2F2 | 
[V:2] c2c2B2A2 | 
[V:1] G4A4 ||  
[V:2] B4A4 ||  
[V:1] A2A2A2A2 | 
[V:2] A2A2c2c2 | 
[V:1] A2A2A2A2 | 
[V:2] c2c2c2c2 | 
[V:1] A4z4 | 
[V:2] A4z4 | 
[V:1] A4A2A2 | 
[V:2] c4c2c2 | 
[V:1] G2F2G4 | 
[V:2] B2A2B4 | 
[V:1] A8 ||  
[V:2] A8 ||  
[V:1] A2A2A2A2 | 
[V:2] A2A2c2c2 | 
[V:1] A2A2A2A2 | 
[V:2] c2c2c2c2 | 
[V:1] A4G4 | 
[V:2] A4B4 | 
[V:1] A2B4A2- | 
[V:2] c2d4c2 | 
[V:1] A2^G2A4 | 
[V:2] B4A4 | 
[V:1] z4A2A2 | 
[V:2] z4c2c2 | 
[V:1] A2A2A4 | 
[V:2] c2c2c4 | 
[V:1] G4F2G2 | 
[V:2] B4A2B2 | 
[V:1] A2B3A^G^F | 
[V:2] c2d3cBA | 
[V:1] ^G4A4 |]  
[V:2] B4A4 |]  



